!!! OTL: Berkowitz325
!!! Chapter: 1
!!! Section: III
!!! Page: 79
!!! Mode: 
!!! Encoder: DJB
**kern
*staff1
*I"Piano
=1-
*clefG2
*k[f#c#g#d#]
*E:
*M6/8
8r
8r
8r
8r
8r
16g#/LL
16a/JJ
=2
4b\
8ee\
4a/
8dd#\
=3
4g#/
8cc#\
4f#/
16g#/LL
16a/JJ
=4
8b\L
8ee\
8cc#\J
8a/L
8g#/
8f#/J
=5
[4.b\
4b\]
8b\
=6
8.ddn\L
16cc#\K
8b\J
8cc#/L
8a/
8e/J
=7
!!linebreak:original
16b\LL
16cc#\
16ddn\
16cc#\
16b\
16a\JJ
4b\
8e/
=8
4cc#\
8ee\
4b\
8e/
=9
4c#/
8e/
4B/
8e/
=10
4d#/
8f#/
4e/
8g#/
=11
8.f#/L
16g#/K
8a/J
8cc#\L
8b\
8a\J
=12
8g#/L
8b/
8e/J
8f#/L
8a/
8d#/J
=13
4.e/
8r
4r
==
*-
